X: 10
T:Durham Rangers
M:4/4
L:1/8
R:Reel
K:D
F-G| "D"ABAF A2 de|"D" fg"A"ef "D"d2dA|"G"BcdB "D"ABAF|"A7"G2 E2 E2 F-G|
!
"D"ABAF A2 de|"D"fg"A"ef "D"d2 dA|"G"BcdB "A7"ABAG| F2 D2 D2 :|!
|(ag)| "D"fefg afdf|"A" edcB Adfa|"G"g2 bg "D"f2 af|"Em"g2 e2 "A7"e2 (FG
)|!
"D"ABAF A2 de|"D"fg"A"ef "D"d2 dA|"G"BcdB "A7"ABAG|"D"F2 D2 D2 (ag)|!
| "D"fefg afdf|"A" edcB Adfa|"G"g2 bg "D"f2 af|"Em"g2 e2 "A7"e2 (FG)|!
"D"ABAF A2 de|"D"fg"A"ef "D"d2 dA|"G"BcdB "A7"ABAG|"D"F2 D2 D2||

